public/piece/maestro/wB.svg

<?xml version="1.0" encoding="UTF-8" standalone="no"?>
<svg
   xmlns:dc="http://purl.org/dc/elements/1.1/"
   xmlns:cc="http://creativecommons.org/ns#"
   xmlns:rdf="http://www.w3.org/1999/02/22-rdf-syntax-ns#"
   xmlns:svg="http://www.w3.org/2000/svg"
   xmlns="http://www.w3.org/2000/svg"
   xmlns:sodipodi="http://sodipodi.sourceforge.net/DTD/sodipodi-0.dtd"
   xmlns:inkscape="http://www.inkscape.org/namespaces/inkscape"
   fill-rule="evenodd"
   clip-rule="evenodd"
   image-rendering="optimizeQuality"
   shape-rendering="geometricPrecision"
   text-rendering="geometricPrecision"
   viewBox="0 0 50 50"
   version="1.1"
   id="svg12"
   sodipodi:docname="wB.svg"
   inkscape:version="0.92.4 (5da689c313, 2019-01-14)">
  <metadata
     id="metadata18">
    <rdf:RDF>
      <cc:Work
         rdf:about="">
        <dc:format>image/svg+xml</dc:format>
        <dc:type
           rdf:resource="http://purl.org/dc/dcmitype/StillImage" />
      </cc:Work>
    </rdf:RDF>
  </metadata>
  <defs
     id="defs16" />
  <sodipodi:namedview
     pagecolor="#ffffff"
     bordercolor="#666666"
     borderopacity="1"
     objecttolerance="10"
     gridtolerance="10"
     guidetolerance="10"
     inkscape:pageopacity="0"
     inkscape:pageshadow="2"
     inkscape:window-width="1920"
     inkscape:window-height="1001"
     id="namedview14"
     showgrid="false"
     inkscape:zoom="13.350176"
     inkscape:cx="6.0454728"
     inkscape:cy="24.99323"
     inkscape:window-x="-9"
     inkscape:window-y="-9"
     inkscape:window-maximized="1"
     inkscape:current-layer="svg12" />
  <path
     style="fill:#efefef;stroke:#000000;stroke-width:0.50010413;stroke-linecap:round;stroke-linejoin:round;stroke-dashoffset:46.29920959"
     inkscape:connector-curvature="0"
     id="path2"
     d="m 24.979791,5.0891419 c -1.240285,-0.022744 -2.221562,1.3490636 -1.816621,2.5150333 0.05714,0.3237611 0.337565,0.610897 0.352882,0.9119674 -0.686376,1.4763872 -1.897084,2.6130484 -3.098151,3.6756954 -2.774621,2.649641 -5.543533,5.310585 -8.177467,8.100388 -1.995823,2.251792 -4.033999,4.656036 -4.8683403,7.60549 -0.3434629,1.398055 -0.2634549,2.975036 0.612143,4.17415 1.3077581,1.850686 3.4875723,2.80536 5.5667963,3.523457 2.395275,0.824052 4.922595,1.192335 7.39986,1.621674 -2.632529,4.527319 -8.205573,4.310224 -12.2461754,5.281588 -1.1948251,0.355111 -2.3663065,0.94134 -3.2370842,1.843971 -0.1574588,0.273438 0.2996717,0.203926 0.4461361,0.211812 6.0176965,-0.02937 12.1442995,0.463752 17.2725915,-2.015448 1.161391,-0.595879 1.45624,-1.888654 2.384469,-1.093954 0.857556,1.038968 2.20729,1.482897 3.437365,1.916362 5.135085,1.656678 10.904332,1.184383 15.780647,1.226876 0.197979,-0.218602 -0.36165,-0.440481 -0.497704,-0.640636 -1.62517,-1.376234 -3.800125,-1.75944 -5.852953,-2.001506 -4.237827,-0.430023 -7.150702,-2.363054 -9.249224,-4.71359 3.341251,-0.56226 6.763008,-1.106052 9.835491,-2.612339 1.697005,-0.836589 3.387008,-2.147105 3.847573,-4.07203 C 43.340032,28.61238 42.617636,26.58959 41.64977,24.945838 40.512987,23.586407 40.268874,22.898735 39.120382,21.461949 37.457491,19.381649 35.863557,17.903661 34.385298,16.483936 32.484951,14.658837 30.668221,13.05331 28.921065,11.28462 28.082014,10.435234 27.111617,9.5135761 26.589849,8.3707483 27.036152,7.6595697 27.172853,6.6884476 26.646916,5.9791169 26.297168,5.4079501 25.653339,5.0544827 24.979791,5.0891419 Z"
     sodipodi:nodetypes="cccccccccccccccccccccccscccc" />
  <path
     style="opacity:0.07000002;stroke-width:0.01054545"
     inkscape:connector-curvature="0"
     id="path4"
     d="m 25.347248,12.663035 c -4.830261,0.207128 -26.8654589,20.217895 -5.62029,22.12634 2.043629,0.131524 4.057561,0.185565 5.981089,0.15213 h 5.39e-4 c 0.138596,2.403955 -0.11226,4.143487 0.960907,6.211722 3.377433,2.338955 14.79503,3.875088 18.51549,3.524747 -0.236444,-0.05944 -0.48661,-0.518479 -0.87465,-0.865576 C 43.913298,43.457255 43.379079,43.21319 43.229507,43.093173 42.667174,42.641959 41.368938,42.383606 40.676023,42.18301 38.590676,41.57929 36.138907,41.826803 34.628151,41.259192 33.667706,40.898344 32.883396,40.894197 32.029966,40.351125 31.39749,39.948645 30.958123,39.254012 30.369013,38.558583 30.007858,38.132241 29.641759,37.790119 29.27189,37.286971 28.780972,36.619143 28.295978,35.752407 27.929674,34.860723 h 0.0011 c 11.487246,-0.648038 18.52066,-4.860445 6.29876,-15.149763 -1.629866,-0.399816 -3.610989,0.02481 -4.228094,1.940998 -0.857039,2.332058 -2.277843,7.146423 -4.629923,8.44439 -1.720799,0.788007 -3.759139,0.719226 -5.556125,0.225059 -8.670957,-3.893137 5.3702,-12.983234 6.112577,-17.540857 -0.147127,-0.09013 -0.343092,-0.1277 -0.580644,-0.117515 z" />
  <path
     style="stroke-width:0.01058554"
     inkscape:connector-curvature="0"
     id="path6"
     d="m 31.11292,13.182568 c -1.380347,1.660029 -10.029043,10.436012 -10.331494,11.561435 -0.302472,1.125423 1.381596,0.154795 2.48669,-0.481049 1.105083,-0.635833 9.580898,-6.54569 11.227159,-7.888715 z" />
  <ellipse
     style="stroke-width:0.01058554"
     id="circle8"
     cy="7.022953"
     cx="25.025501"
     rx="0.94249922"
     ry="0.94007289" />
</svg>

<svg xmlns="http://www.w3.org/2000/svg" fill-rule="evenodd" clip-rule="evenodd" image-rendering="optimizeQuality" shape-rendering="geometricPrecision" text-rendering="geometricPrecision" viewBox="0 0 50 50"><path d="M24.98 5.09c-1.24-.024-2.222 1.348-1.817 2.514.057.324.338.611.353.912-.686 1.477-1.897 2.613-3.098 3.676-2.775 2.65-5.544 5.31-8.178 8.1-1.995 2.252-4.034 4.656-4.868 7.606-.343 1.398-.263 2.975.612 4.174 1.308 1.85 3.488 2.805 5.567 3.523 2.395.824 4.923 1.193 7.4 1.622-2.633 4.527-8.206 4.31-12.246 5.282-1.195.355-2.367.94-3.237 1.844-.158.273.3.203.446.211 6.017-.029 12.144.464 17.272-2.015 1.162-.596 1.457-1.889 2.385-1.094.857 1.039 2.207 1.483 3.437 1.916 5.135 1.657 10.905 1.185 15.78 1.227.199-.218-.36-.44-.497-.64-1.625-1.377-3.8-1.76-5.853-2.002-4.238-.43-7.15-2.363-9.249-4.714 3.341-.562 6.763-1.106 9.835-2.612 1.697-.836 3.387-2.147 3.848-4.072.468-1.936-.254-3.958-1.222-5.602-1.137-1.36-1.381-2.047-2.53-3.484-1.663-2.08-3.256-3.558-4.735-4.978-1.9-1.825-3.717-3.43-5.464-5.2-.839-.849-1.81-1.77-2.331-2.913.446-.711.583-1.683.057-2.392a1.862 1.862 0 00-1.667-.89z" fill="#efefef" stroke="#000" stroke-width=".5" stroke-linecap="round" stroke-linejoin="round" stroke-dashoffset="46.299"/><path d="M25.347 12.663c-4.83.207-26.865 20.218-5.62 22.126 2.044.132 4.058.186 5.981.153.14 2.403-.112 4.143.961 6.211 3.378 2.34 14.796 3.875 18.516 3.525-.236-.06-.487-.519-.875-.866-.397-.355-.93-.599-1.08-.719-.563-.451-1.861-.71-2.554-.91-2.085-.604-4.537-.356-6.048-.924-.96-.36-1.745-.365-2.598-.908-.633-.402-1.072-1.097-1.661-1.792-.361-.427-.727-.769-1.097-1.272a11.813 11.813 0 01-1.342-2.426c11.488-.648 18.521-4.86 6.3-15.15-1.63-.4-3.611.025-4.229 1.941-.857 2.332-2.277 7.146-4.63 8.444-1.72.788-3.759.72-5.556.225-8.67-3.893 5.37-12.983 6.113-17.54-.147-.09-.343-.128-.58-.118z" opacity=".07"/><path d="M31.113 13.183c-1.38 1.66-10.03 10.436-10.332 11.561-.302 1.125 1.382.155 2.487-.481 1.105-.636 9.581-6.546 11.227-7.889z"/><ellipse cy="7.023" cx="25.026" rx=".942" ry=".94"/></svg>
